symbols/web/photo_camera_front/materialsymbolsoutlined/photo_camera_front_wght200_40px.svg

<svg xmlns="http://www.w3.org/2000/svg" height="40" width="40"><path d="M14.5 26.792h11v-.25q0-1.417-1.438-2.167-1.437-.75-4.062-.75t-4.062.75q-1.438.75-1.438 2.167Zm5.5-6.209q1 0 1.708-.708.709-.708.709-1.708t-.709-1.709Q21 15.75 20 15.75t-1.708.688q-.709.687-.709 1.729 0 1 .709 1.708.708.708 1.708.708ZM7.417 33.333q-1 0-1.709-.708Q5 31.917 5 30.917V12.542q0-1.042.708-1.75.709-.709 1.709-.709h5.208l3.083-3.416h8.584l3.083 3.416h5.208q1 0 1.709.709.708.708.708 1.75v18.375q0 1-.708 1.708-.709.708-1.709.708Zm25.166-1.416q.417 0 .709-.292.291-.292.291-.708V12.542q0-.459-.291-.75-.292-.292-.709-.292H26.75l-3.083-3.417h-7.334L13.25 11.5H7.417q-.417 0-.709.292-.291.291-.291.75v18.375q0 .416.291.708.292.292.709.292ZM20 20Z"/></svg>

<svg xmlns="http://www.w3.org/2000/svg" height="40" width="40"><path d="M14.5 26.792H25.5V26.542Q25.5 25.125 24.062 24.375Q22.625 23.625 20 23.625Q17.375 23.625 15.938 24.375Q14.5 25.125 14.5 26.542ZM20 20.583Q21 20.583 21.708 19.875Q22.417 19.167 22.417 18.167Q22.417 17.167 21.708 16.458Q21 15.75 20 15.75Q19 15.75 18.292 16.438Q17.583 17.125 17.583 18.167Q17.583 19.167 18.292 19.875Q19 20.583 20 20.583ZM7.417 33.333Q6.417 33.333 5.708 32.625Q5 31.917 5 30.917V12.542Q5 11.5 5.708 10.792Q6.417 10.083 7.417 10.083H12.625L15.708 6.667H24.292L27.375 10.083H32.583Q33.583 10.083 34.292 10.792Q35 11.5 35 12.542V30.917Q35 31.917 34.292 32.625Q33.583 33.333 32.583 33.333ZM32.583 31.917Q33 31.917 33.292 31.625Q33.583 31.333 33.583 30.917V12.542Q33.583 12.083 33.292 11.792Q33 11.5 32.583 11.5H26.75L23.667 8.083H16.333L13.25 11.5H7.417Q7 11.5 6.708 11.792Q6.417 12.083 6.417 12.542V30.917Q6.417 31.333 6.708 31.625Q7 31.917 7.417 31.917ZM20 20Q20 20 20 20Q20 20 20 20Q20 20 20 20Q20 20 20 20Q20 20 20 20Q20 20 20 20Q20 20 20 20Q20 20 20 20Z"/></svg>
